resources/haticons/SVG/frustrated.svg

<!-- Generated by IcoMoon.io -->
<svg version="1.1" xmlns="http://www.w3.org/2000/svg" width="24" height="24" viewBox="0 0 24 24">
<title>frustrated</title>
<path d="M8.585 6.642c-0.814-0.407-1.62-0.611-1.653-0.619-0.402-0.101-0.809 0.144-0.91 0.546s0.144 0.809 0.546 0.909c0.413 0.104 0.903 0.284 1.334 0.5-0.25 0.268-0.403 0.627-0.403 1.022 0 0.828 0.672 1.5 1.5 1.5s1.5-0.672 1.5-1.5c0-0.027-0.001-0.055-0.002-0.082-0.048-1.112-1.060-1.85-1.912-2.277z"></path>
<path d="M12 0c-6.627 0-12 5.373-12 12s5.373 12 12 12 12-5.373 12-12-5.373-12-12-12zM5.543 19.305c0.251 0.125 0.533 0.195 0.832 0.195h11.25c0.299 0 0.581-0.071 0.832-0.195-1.72 1.521-3.98 2.445-6.457 2.445s-4.737-0.924-6.457-2.445zM6 17.625v-2.25c0-0.203 0.172-0.375 0.375-0.375h2.625v3h-2.625c-0.203 0-0.375-0.172-0.375-0.375zM10.5 18v-3h3v3h-3zM15 18v-3h2.625c0.203 0 0.375 0.172 0.375 0.375v2.25c0 0.203-0.172 0.375-0.375 0.375h-2.625zM19.305 18.457c0.125-0.251 0.195-0.533 0.195-0.832v-2.25c0-1.034-0.841-1.875-1.875-1.875h-11.25c-1.034 0-1.875 0.841-1.875 1.875v2.25c0 0.299 0.071 0.581 0.195 0.832-1.521-1.72-2.445-3.98-2.445-6.457 0-5.385 4.365-9.75 9.75-9.75s9.75 4.365 9.75 9.75c0 2.477-0.924 4.737-2.445 6.457z"></path>
<path d="M17.068 6.022c-0.034 0.008-0.839 0.212-1.653 0.619-0.853 0.426-1.865 1.164-1.912 2.277-0.001 0.027-0.002 0.054-0.002 0.082 0 0.828 0.672 1.5 1.5 1.5s1.5-0.672 1.5-1.5c0-0.395-0.153-0.754-0.403-1.022 0.432-0.216 0.921-0.396 1.334-0.5 0.402-0.1 0.646-0.508 0.546-0.909s-0.508-0.646-0.91-0.546z"></path>
</svg>

<svg xmlns="http://www.w3.org/2000/svg" width="24" height="24"><path d="M8.585 6.642a9.007 9.007 0 0 0-1.653-.619.75.75 0 0 0-.364 1.455c.413.104.903.284 1.334.5a1.5 1.5 0 1 0 2.595.94c-.048-1.112-1.06-1.85-1.912-2.277z"/><path d="M12 0C5.373 0 0 5.373 0 12s5.373 12 12 12 12-5.373 12-12S18.627 0 12 0zM5.543 19.305c.251.125.533.195.832.195h11.25c.299 0 .581-.071.832-.195-1.72 1.521-3.98 2.445-6.457 2.445s-4.737-.924-6.457-2.445zM6 17.625v-2.25A.38.38 0 0 1 6.375 15H9v3H6.375A.38.38 0 0 1 6 17.625zm4.5.375v-3h3v3h-3zm4.5 0v-3h2.625a.38.38 0 0 1 .375.375v2.25a.38.38 0 0 1-.375.375H15zm4.305.457a1.86 1.86 0 0 0 .195-.832v-2.25a1.877 1.877 0 0 0-1.875-1.875H6.375A1.877 1.877 0 0 0 4.5 15.375v2.25c0 .299.071.581.195.832A9.75 9.75 0 0 1 12 2.25a9.75 9.75 0 0 1 7.305 16.207z"/><path d="M17.068 6.022a8.978 8.978 0 0 0-1.653.619c-.853.426-1.865 1.164-1.912 2.277L13.501 9a1.5 1.5 0 1 0 2.597-1.022 6.9 6.9 0 0 1 1.334-.5.75.75 0 1 0-.364-1.455z"/></svg>
